X: 15915
T: Granda's Dream Visit
R: polka
M: 2/4
K: Bminor
|:FB ce|d/c/B/A/ BF|A/d/A/F/ EF|A2 Ad/A/|
FB ce|d/c/B/A/ BF|Ac/e/ dc|1 B2 B/c/B/A/:|2 B2 B/c/^d/e/||
|:fd d>f|ec c/e/c/B/|Ac/e/ dc|BF F>e|
fd d>f|ec c/e/c/B/|Ac/e/ dc|1 B2 B/c/^d/e/:|2 B2 B/c/B/A/||

